pix_core/e/paste_text.svg

<!DOCTYPE svg PUBLIC "-//W3C//DTD SVG 1.1//EN" "http://www.w3.org/Graphics/SVG/1.1/DTD/svg11.dtd" [
	<!ENTITY ns_flows "http://ns.adobe.com/Flows/1.0/">
]><svg xmlns="http://www.w3.org/2000/svg" width="16" height="16" viewBox="0 0 16 16" preserveAspectRatio="xMinYMid meet" overflow="visible"><path d="M12 5v-2.5c0-.3-.2-.5-.5-.5h-3.5v-1c0-.6-.5-1-1-1h-2c-.5 0-1 .4-1 1v1h-3.5c-.3 0-.5.2-.5.5v10c0 .3.2.5.5.5h4.5v3h7l3-3v-8h-3zm-7-4h2v1h-2v-1zm-3 3v-1h8v1h-8zm10 10.6v-1.6h1.6l-1.6 1.6zm2-2.6h-3v.8s-.1 0-.1 0c-.1-.1-.1-.1-.2-.2s0-.2 0-.5v-4.1h.4c.2 0 .4 0 .5.1.2.1.3.2.4.3s.2.4.3.7h.1v-1.4h-4.7v1.4h.1c.1-.4.2-.7.5-.9.1-.1.4-.2.7-.2h.4v4.1c0 .3 0 .4 0 .5 0 .1-.1.2-.2.2-.1.1-.2.1-.4.1h-.1v.1h2.3v2h-5v-9h8v6z" fill="#888"/></svg>

<?xml version="1.0" encoding="utf-8"?>
<!-- Generator: Adobe Illustrator 15.1.0, SVG Export Plug-In  -->
<!DOCTYPE svg PUBLIC "-//W3C//DTD SVG 1.1//EN" "http://www.w3.org/Graphics/SVG/1.1/DTD/svg11.dtd" [
	<!ENTITY ns_flows "http://ns.adobe.com/Flows/1.0/">
]>
<svg version="1.1"
	 xmlns="http://www.w3.org/2000/svg" xmlns:xlink="http://www.w3.org/1999/xlink" xmlns:a="http://ns.adobe.com/AdobeSVGViewerExtensions/3.0/"
	 x="0px" y="0px" width="16px" height="16px" viewBox="0 0 16 16" style="overflow:visible;enable-background:new 0 0 16 16;"
	 xml:space="preserve" preserveAspectRatio="xMinYMid meet">
<defs>
</defs>
<path style="fill:#29a1c4;" d="M12,5V2.5C12,2.2,11.8,2,11.5,2H8V1c0-0.6-0.5-1-1-1H5C4.5,0,4,0.4,4,1v1H0.5C0.2,2,0,2.2,0,2.5v10
	C0,12.8,0.2,13,0.5,13H5v3h7l3-3V5H12z M5,1L5,1l2,0c0,0,0,0,0,0l0,1H5V1z M2,4V3h8v1H2z M12,14.6V13h1.6L12,14.6z M14,12h-3v0.8
	c0,0-0.1,0-0.1,0c-0.1-0.1-0.1-0.1-0.2-0.2s0-0.2,0-0.5V8h0.4c0.2,0,0.4,0,0.5,0.1c0.2,0.1,0.3,0.2,0.4,0.3s0.2,0.4,0.3,0.7h0.1V7.7
	H7.7v1.4h0.1C7.9,8.7,8,8.4,8.3,8.2C8.4,8.1,8.7,8,9,8h0.4v4.1c0,0.3,0,0.4,0,0.5c0,0.1-0.1,0.2-0.2,0.2c-0.1,0.1-0.2,0.1-0.4,0.1
	H8.7V13H11v2H6V6h8V12z"/>
</svg>
